X:058 
T:For the Sake of Old Decency (reel) 
B:CRE3.192 (De GhrÃÂÃÂÃÂÃÂ¡ na Sean-MheasÃÂÃÂÃÂÃÂºlachta)
F:file ID: cre.3/058for_s
R:reel
L:1/8
Q:180
M:C
K:G
d2BG AGEG|DGBG A2AB|d2BG AGEG|DGBG EGGB|
d2BG AGEG|DGBG A2AB|d2BG AGEG|DGBG EGG2||
G3B d2Bd|eaag egge|G3B d2Bd|dega bgge|
G3B d2Bd|e2ag egge|G3B d2Bd|dega bage||

%%%

